assets/icons/cancel.svg

<svg width="23" height="22" viewBox="0 0 23 22" fill="none" xmlns="http://www.w3.org/2000/svg">
<mask id="path-1-inside-1_553_1576" fill="white">
<path fill-rule="evenodd" clip-rule="evenodd" d="M11.8796 20.8546C6.43725 20.8546 2.02539 16.4427 2.02539 11.0004C2.02539 5.5581 6.43725 1.14624 11.8796 1.14624C17.3219 1.14624 21.7337 5.5581 21.7337 11.0004C21.7337 16.4427 17.3219 20.8546 11.8796 20.8546ZM15.2777 8.89861C15.6357 8.54064 15.6357 7.96024 15.2777 7.60225C14.9198 7.24426 14.3394 7.24424 13.9814 7.6022L11.8794 9.70406L9.77771 7.60256C9.41973 7.24459 8.83932 7.24461 8.48135 7.60261C8.12339 7.9606 8.12341 8.541 8.4814 8.89897L10.5829 11.0004L8.4814 13.1019C8.12341 13.4598 8.12339 14.0403 8.48135 14.3982C8.83932 14.7562 9.41973 14.7562 9.77771 14.3982L11.8794 12.2968L13.9814 14.3986C14.3394 14.7565 14.9198 14.7565 15.2777 14.3986C15.6357 14.0405 15.6357 13.4602 15.2777 13.1022L13.1758 11.0004L15.2777 8.89861Z"/>
</mask>
<path fill-rule="evenodd" clip-rule="evenodd" d="M11.8796 20.8546C6.43725 20.8546 2.02539 16.4427 2.02539 11.0004C2.02539 5.5581 6.43725 1.14624 11.8796 1.14624C17.3219 1.14624 21.7337 5.5581 21.7337 11.0004C21.7337 16.4427 17.3219 20.8546 11.8796 20.8546ZM15.2777 8.89861C15.6357 8.54064 15.6357 7.96024 15.2777 7.60225C14.9198 7.24426 14.3394 7.24424 13.9814 7.6022L11.8794 9.70406L9.77771 7.60256C9.41973 7.24459 8.83932 7.24461 8.48135 7.60261C8.12339 7.9606 8.12341 8.541 8.4814 8.89897L10.5829 11.0004L8.4814 13.1019C8.12341 13.4598 8.12339 14.0403 8.48135 14.3982C8.83932 14.7562 9.41973 14.7562 9.77771 14.3982L11.8794 12.2968L13.9814 14.3986C14.3394 14.7565 14.9198 14.7565 15.2777 14.3986C15.6357 14.0405 15.6357 13.4602 15.2777 13.1022L13.1758 11.0004L15.2777 8.89861Z" fill="white" fill-opacity="0.2" stroke="url(#paint0_linear_553_1576)" stroke-width="2" mask="url(#path-1-inside-1_553_1576)"/>
<path d="M13.9817 7.60254C14.3397 7.24469 14.9196 7.24469 15.2776 7.60254C15.6355 7.96049 15.6354 8.54046 15.2776 8.89844L13.176 11.001L15.2776 13.1025C15.6355 13.4605 15.6355 14.0404 15.2776 14.3984C14.9196 14.7564 14.3397 14.7564 13.9817 14.3984L11.8792 12.2969L9.77759 14.3984C9.41963 14.7563 8.83964 14.7563 8.48169 14.3984C8.12376 14.0405 8.1238 13.4605 8.48169 13.1025L10.5833 11.001L8.48169 8.89941C8.12369 8.54145 8.12372 7.96053 8.48169 7.60254C8.83959 7.24493 9.41968 7.24493 9.77759 7.60254L11.8792 9.7041L13.9817 7.60254Z" fill="white"/>
<defs>
<linearGradient id="paint0_linear_553_1576" x1="3.79914" y1="3.11707" x2="18.9746" y2="19.0808" gradientUnits="userSpaceOnUse">
<stop stop-color="white" stop-opacity="0.3"/>
<stop offset="0.370192" stop-color="white" stop-opacity="0.15"/>
<stop offset="0.721154" stop-color="white" stop-opacity="0.1"/>
<stop offset="1" stop-color="white" stop-opacity="0.3"/>
</linearGradient>
</defs>
</svg>

<svg xmlns="http://www.w3.org/2000/svg" width="23" height="22" fill="none" viewBox="0 0 23 22"><mask id="b" fill="#fff"><path fill-rule="evenodd" d="M11.88 20.855c-5.443 0-9.855-4.412-9.855-9.855 0-5.442 4.412-9.854 9.855-9.854 5.442 0 9.854 4.412 9.854 9.854 0 5.443-4.412 9.855-9.854 9.855m3.398-11.956a.917.917 0 0 0-1.297-1.297L11.88 9.704 9.778 7.603A.917.917 0 1 0 8.48 8.899L10.583 11 8.48 13.102a.917.917 0 1 0 1.297 1.296l2.101-2.101 2.102 2.102a.917.917 0 0 0 1.297-1.297L13.176 11z" clip-rule="evenodd"/></mask><path fill="#fff" fill-opacity=".2" fill-rule="evenodd" stroke="url(#a)" stroke-width="2" d="M11.88 20.855c-5.443 0-9.855-4.412-9.855-9.855 0-5.442 4.412-9.854 9.855-9.854 5.442 0 9.854 4.412 9.854 9.854 0 5.443-4.412 9.855-9.854 9.855Zm3.398-11.956a.917.917 0 0 0-1.297-1.297L11.88 9.704 9.778 7.603A.917.917 0 1 0 8.48 8.899L10.583 11 8.48 13.102a.917.917 0 1 0 1.297 1.296l2.101-2.101 2.102 2.102a.917.917 0 0 0 1.297-1.297L13.176 11z" clip-rule="evenodd" mask="url(#b)"/><path fill="#fff" d="M13.982 7.603a.916.916 0 0 1 1.296 1.295l-2.102 2.103 2.102 2.101a.916.916 0 1 1-1.296 1.296l-2.103-2.101-2.101 2.101a.916.916 0 1 1-1.296-1.296l2.101-2.101-2.101-2.102a.917.917 0 0 1 1.296-1.296l2.101 2.101z"/><defs><linearGradient id="a" x1="3.799" x2="18.975" y1="3.117" y2="19.081" gradientUnits="userSpaceOnUse"><stop stop-color="#fff" stop-opacity=".3"/><stop offset=".37" stop-color="#fff" stop-opacity=".15"/><stop offset=".721" stop-color="#fff" stop-opacity=".1"/><stop offset="1" stop-color="#fff" stop-opacity=".3"/></linearGradient></defs></svg>
